build/img/svg/icon-eye.svg

<svg width="22" height="12" viewBox="0 0 22 12" fill="none" xmlns="http://www.w3.org/2000/svg">
  <path
    d="M8.29878 12L6.33638 11.4893L7.13618 8.59185C5.93899 8.16352 4.82634 7.5393 3.84654 6.7463L1.65854 8.86987L0.220528 7.47486L2.40955 5.35228C1.17386 3.91662 0.343585 2.19431 0 0.353927L2 0C2.77134 4.14262 6.50711 7.28557 11 7.28557C15.4919 7.28557 19.2287 4.14262 20 0L22 0.352941C21.6569 2.19358 20.827 3.91624 19.5915 5.35228L21.7795 7.47486L20.3415 8.86987L18.1535 6.7463C17.1737 7.5393 16.061 8.16352 14.8638 8.59185L15.6636 11.4903L13.7012 12L12.9004 9.10155C11.6426 9.31063 10.3574 9.31063 9.0996 9.10155L8.29878 12Z"
    fill="#1F1E25"/>
</svg>

<svg width="22" height="12" fill="none" xmlns="http://www.w3.org/2000/svg"><path d="M8.299 12l-1.963-.51.8-2.898a11.254 11.254 0 01-3.29-1.846L1.66 8.87.22 7.475l2.19-2.123A10.663 10.663 0 010 .354L2 0c.771 4.143 4.507 7.286 9 7.286 4.492 0 8.229-3.143 9-7.286l2 .353a10.662 10.662 0 01-2.409 5l2.188 2.122-1.438 1.395-2.188-2.124a11.254 11.254 0 01-3.29 1.846l.8 2.898-1.962.51-.8-2.898a11.6 11.6 0 01-3.801 0L8.299 12z" fill="#1F1E25"/></svg>
